X:246
T:Morag's Ceilidh 
C:Joe Buchanan's Scottish Tome - Page 301.1
I:301 1
C:Fergie MacDonald
R:Jig
Z:Carl Allison
L:1/8
M:6/8
K:A
e |"A"AAA cee |c2 B cAA | AAA cee | "D"f2 e faa |
"A"aff "G"=g2 e | "D"fdd "A"e2 A | "Bm"c2 e "E7"dBB | "D"cAA "A"A2 :|
"E7"f=g |"A" aff "G"=gee |"D" fdd "A"eAA | cee "F#m"ece | "Bm"e=gf "E7"fee |
"A"aff "G"=g2 e |"D"fdd "A"e2 A |"Bm" c2 e "E7"cBB | "D"cAA "A"A2 :|

